icons/media/podcast-24.svg

<svg width="24" height="24" viewBox="0 0 24 24" fill="none" xmlns="http://www.w3.org/2000/svg">
<path d="M12 1C6.49643 1 2 5.34853 2 10.7546C2 13.4749 3.14517 15.928 4.98046 17.6908C5.27919 17.9777 5.75397 17.9681 6.0409 17.6694C6.32784 17.3707 6.31827 16.8959 6.01954 16.6089C4.46097 15.1119 3.5 13.0426 3.5 10.7546C3.5 6.21473 7.28658 2.5 12 2.5C16.7134 2.5 20.5 6.21473 20.5 10.7546C20.5 13.0426 19.539 15.1119 17.9805 16.6089C17.6817 16.8959 17.6722 17.3707 17.9591 17.6694C18.246 17.9681 18.7208 17.9777 19.0195 17.6908C20.8548 15.928 22 13.4749 22 10.7546C22 5.34853 17.5036 1 12 1Z" fill="black"/>
<path d="M7 10.6859C7 8.13735 9.19859 6 12 6C14.8014 6 17 8.13735 17 10.6859C17 11.6567 16.6832 12.5577 16.1373 13.3092C15.8938 13.6443 15.9681 14.1133 16.3032 14.3568C16.6383 14.6002 17.1074 14.5259 17.3508 14.1908C18.0718 13.1984 18.5 11.9919 18.5 10.6859C18.5 7.23066 15.5493 4.5 12 4.5C8.45066 4.5 5.5 7.23066 5.5 10.6859C5.5 11.9912 5.92824 13.1982 6.64922 14.1908C6.89264 14.5259 7.36166 14.6002 7.6968 14.3568C8.03194 14.1134 8.10628 13.6444 7.86286 13.3092C7.31682 12.5575 7 11.656 7 10.6859Z" fill="black"/>
<path d="M12 13C13.1046 13 14 12.1046 14 11C14 9.89543 13.1046 9 12 9C10.8954 9 10 9.89543 10 11C10 12.1046 10.8954 13 12 13Z" fill="black"/>
<path fill-rule="evenodd" clip-rule="evenodd" d="M12 14.5C10.6193 14.5 9.5 15.6193 9.5 17V20.5C9.5 21.8807 10.6193 23 12 23C13.3807 23 14.5 21.8807 14.5 20.5V17C14.5 15.6193 13.3807 14.5 12 14.5ZM11 17C11 16.4477 11.4477 16 12 16C12.5523 16 13 16.4477 13 17V20.5C13 21.0523 12.5523 21.5 12 21.5C11.4477 21.5 11 21.0523 11 20.5V17Z" fill="black"/>
</svg>

<svg xmlns="http://www.w3.org/2000/svg" width="24" height="24"><path d="M12 1C6.496 1 2 5.349 2 10.755c0 2.72 1.145 5.173 2.98 6.936a.75.75 0 001.04-1.082c-1.56-1.497-2.52-3.566-2.52-5.854C3.5 6.215 7.287 2.5 12 2.5s8.5 3.715 8.5 8.255c0 2.288-.961 4.357-2.52 5.854a.75.75 0 001.04 1.082c1.835-1.763 2.98-4.216 2.98-6.936C22 5.349 17.504 1 12 1z"/><path d="M7 10.686C7 8.137 9.199 6 12 6s5 2.137 5 4.686a4.44 4.44 0 01-.863 2.623.75.75 0 101.214.882 5.939 5.939 0 001.149-3.505C18.5 7.23 15.55 4.5 12 4.5s-6.5 2.73-6.5 6.186a5.94 5.94 0 001.15 3.505.75.75 0 001.213-.882A4.44 4.44 0 017 10.686z"/><path d="M12 13a2 2 0 100-4 2 2 0 000 4z"/><path fill-rule="evenodd" d="M12 14.5A2.5 2.5 0 009.5 17v3.5a2.5 2.5 0 005 0V17a2.5 2.5 0 00-2.5-2.5zM11 17a1 1 0 112 0v3.5a1 1 0 11-2 0V17z"/></svg>
